!!!!SEGMENT: pl-cz--ii-85_fertner-karol--o-jesu-amor-mi-in-g.krn
!!!cenid: 18xx:60
!!!COM: Fertner, Karol
!!!COM-rismid: pe30040944
!!!CDT: 1803-1879
!!!CNT:
!!!OTL: O Jesu amor mi in G
!!!PDT:
!!!AGN: Sacred
!!!SMS-siglum: PL-CZ
!!!SMS-shelfmark: II-85
!!!SMS-shelfwork: W
!!!NIFC-rismid:
!!!URL-scan: http://repozytorium.nifc.pl/skany/pl-cz-nut--ii-85
!!!ONB-nifc:
**kern	**dynam	**kern	**text	**kern	**dynam	**kern	**dynam	**kern	**dynam	**kern	**dynam	**kern	**kern	**dynam	**kern	**dynam
*part9	*part9	*part8	*part8	*part7	*part7	*part6	*part6	*part5	*part5	*part4	*	*part3	*part2	*part2	*part1	*part1
*staff9	*	*staff8	*staff8	*staff7	*	*staff6	*	*staff5	*	*staff4	*	*staff3	*staff2	*	*staff1	*
*I"Organo	*	*I"Canto Solo	*	*I"Viola Alto	*	*I"Violino secundo	*	*I"Violino primo	*	*I"Corno secundo in G	*	*I"Corno primo in G	*I"Oboe secundo	*	*I"Oboe primo	*
*I'Org	*	*I'C	*	*I'Va	*	*I'Vn II	*	*I'Vn I	*	*I'Cor II	*	*I'Cor I	*I'Ob II	*	*I'Ob I	*
*clefF4	*	*clefC1	*	*clefC3	*	*clefG2	*	*clefG2	*	*clefG2	*	*clefG2	*clefG2	*	*clefG2	*
*ITrd0c0	*	*	*	*	*	*	*	*	*	*ITrd3c5	*	*ITrd3c5	*	*	*	*
*k[f#]	*	*k[f#]	*	*k[f#]	*	*k[f#]	*	*k[f#]	*	*k[f#]	*	*k[f#]	*k[f#]	*	*k[f#]	*
*M3/4	*	*M3/4	*	*M3/4	*	*M3/4	*	*M3/4	*	*M3/4	*	*M3/4	*M3/4	*	*M3/4	*
=1	=1	=1	=1	=1	=1	=1	=1	=1	=1	=1	=1	=1	=1	=1	=1	=1
!LO:TX:a:i:t=Adagio	!	!LO:TX:t=Andante	!	!	!	!	!	!	!	!LO:TX:a:i:t=Andanto	!	!LO:TX:a:i:t=Andante	!LO:TX:a:i:t=Andante	!	!	!
!	!	!	!	!LO:SIC:v=pauza ćwierćnutowa	!	!	!	!	!	!	!	!	!	!	!LO:TX:a:i:t=Andanto	!
2G\;	.	4r;	.	4ryy	.	2B/;	.	2g/;	.	2B/;	.	2g/;	2gg\;	.	2bb\;	.
.	.	4r	.	4r;	.	.	.	.	.	.	.	.	.	.	.	.
4r	.	4d/	O	4r	.	4r	.	4dd\	.	4r	.	4r	4r	.	4r	.
=2	=2	=2	=2	=2	=2	=2	=2	=2	=2	=2	=2	=2	=2	=2	=2	=2
!	!	!	!	!	!	!LO:TX:i:t=Andante	!	!	!	!	!	!	!	!	!	!
.	.	.	.	.	.	.	.	.	.	.	.	.	.	.	.	.
!LO:TX:a:i:t=pia:	!LO:DY:a	!	!	!LO:TX:a:i:t=Pia	!LO:DY:a	!	!LO:DY:a	!	!LO:DY:a	!	!	!	!	!	!	!
*	*	*	*	*	*	*tremolo	*	*	*	*	*	*	*	*	*	*
4G\	py	2g\	Je-	(<8G/L	py	2B/	p	2gg\	p	2.r	.	2.r	2.r	.	2.r	.
.	.	.	.	8B/	.	.	.	.	.	.	.	.	.	.	.	.
4r	.	.	.	8G/	.	.	.	.	.	.	.	.	.	.	.	.
.	.	.	.	8B/	.	.	.	.	.	.	.	.	.	.	.	.
4r	.	4g\	-su	8G/	.	4d/	.	4gg\	.	.	.	.	.	.	.	.
.	.	.	.	8B/J)	.	.	.	.	.	.	.	.	.	.	.	.
=3	=3	=3	=3	=3	=3	=3	=3	=3	=3	=3	=3	=3	=3	=3	=3	=3
!	!	!LO:TX:t=P:znak repetycji tekstu:problem	!	!	!	!	!	!	!	!	!	!	!	!	!	!
*	*	*	*	*tremolo	*	*	*	*	*	*	*	*	*	*	*	*
4G\	.	2b\	{Je-	(<8G/L	.	8B/L	.	2bb\	.	2.r	.	2.r	2.r	.	2.r	.
.	.	.	.	8B/	.	8d/	.	.	.	.	.	.	.	.	.	.
4r	.	.	.	8G/	.	8B/	.	.	.	.	.	.	.	.	.	.
.	.	.	.	8B/	.	8d/	.	.	.	.	.	.	.	.	.	.
4r	.	4b\	-su}	8G/	.	8B/	.	4bb\	.	.	.	.	.	.	.	.
.	.	.	.	8B/J)	.	8d/J	.	.	.	.	.	.	.	.	.	.
=4	=4	=4	=4	=4	=4	=4	=4	=4	=4	=4	=4	=4	=4	=4	=4	=4
.	.	8qqb/	.	.	.	.	.	8qbb/	.	.	.	.	.	.	.	.
4D\	.	4a\	a-	(<8A/L	.	8c/L	.	4aa\	.	2.r	.	2.r	2.r	.	2.r	.
.	.	.	.	8c\	.	8d/	.	.	.	.	.	.	.	.	.	.
4r	.	4g\	-mor-	8A/	.	8c/	.	4gg\	.	.	.	.	.	.	.	.
.	.	.	.	8c\	.	8d/	.	.	.	.	.	.	.	.	.	.
4r	.	4a\	.	8A/	.	8c/	.	4aa\	.	.	.	.	.	.	.	.
.	.	.	.	8c\J)	.	8d/J	.	.	.	.	.	.	.	.	.	.
=5	=5	=5	=5	=5	=5	=5	=5	=5	=5	=5	=5	=5	=5	=5	=5	=5
4G\	.	4g\	-mi	8G/L	.	8B/L	.	4gg\	.	2.r	.	2.r	2.r	.	2.r	.
.	.	.	.	8B/J	.	8d/J	.	.	.	.	.	.	.	.	.	.
4r	.	4r	.	4G/	.	4B/	.	4r	.	.	.	.	.	.	.	.
4r	.	4dd\	O	4r	.	4r	.	4dd\	.	.	.	.	.	.	.	.
=6	=6	=6	=6	=6	=6	=6	=6	=6	=6	=6	=6	=6	=6	=6	=6	=6
!	!	!	!	!	!	!	!	!	!LO:DY:a	!	!	!	!	!	!	!
4G\	.	4dd\	Je-	8G/L	.	8B/L	.	(>4dd\	p	2.r	.	2.r	2.r	.	2.r	.
.	.	.	.	8G/	.	8d/	.	.	.	.	.	.	.	.	.	.
4r	.	4b\	-su	8G/	.	8B/	.	4b\)	.	.	.	.	.	.	.	.
.	.	.	.	8G/	.	8d/	.	.	.	.	.	.	.	.	.	.
4r	.	4gg\	.	8G/	.	8B/	.	4gg\	.	.	.	.	.	.	.	.
.	.	.	.	8G/J	.	8d/J	.	.	.	.	.	.	.	.	.	.
=7	=7	=7	=7	=7	=7	=7	=7	=7	=7	=7	=7	=7	=7	=7	=7	=7
4G\	.	4dd\	a-	8G/L	.	8B/L	.	4dd\	.	2.r	.	2.r	2.r	.	2.r	.
.	.	.	.	8G/	.	8d/	.	.	.	.	.	.	.	.	.	.
4r	.	4b\	-mor-	8G/	.	8B/	.	4b\	.	.	.	.	.	.	.	.
.	.	.	.	8G/	.	8d/	.	.	.	.	.	.	.	.	.	.
4r	.	4g\	.	8G/	.	8B/	.	4g\	.	.	.	.	.	.	.	.
.	.	.	.	8G/J	.	8d/J	.	.	.	.	.	.	.	.	.	.
=8	=8	=8	=8	=8	=8	=8	=8	=8	=8	=8	=8	=8	=8	=8	=8	=8
!	!	!	!	!	!	!	!	!	!	!	!LO:DY:a	!	!LO:TX:a:i:t=pia	!LO:DY:a	!	!LO:DY:a
4D\	.	4a\	-mi	4F#/	.	4F#/	.	4a/	.	4d/	p	4a/	4r	py	4r	p
4r	.	4r	.	4r	.	4r	.	4r	.	4r	.	4r	8ff#\L	.	8aa\L	.
.	.	.	.	.	.	.	.	.	.	.	.	.	8gg\	.	8bb\	.
4r	.	4r	.	4r	.	4r	.	4r	.	4r	.	4r	8aa\	.	8ccc\	.
.	.	.	.	.	.	.	.	.	.	.	.	.	8gg\J	.	8bb\J	.
=9	=9	=9	=9	=9	=9	=9	=9	=9	=9	=9	=9	=9	=9	=9	=9	=9
2.r	.	4r	.	2.r	.	4ff#\	.	4aa\	.	4d/	.	4a/	2.r	.	2.r	.
.	.	4r	.	.	.	8ff#\L	.	8aa\L	.	4r	.	4r	.	.	.	.
.	.	.	.	.	.	8gg\J	.	8bb\J	.	.	.	.	.	.	.	.
.	.	4d/	O	.	.	8aa\L	.	8ccc\L	.	4r	.	4r	.	.	.	.
!	!	!	!	!	!	!LO:TX:t=P:mixed beam:problem	!	!	!	!	!	!	!	!	!	!
.	.	.	.	.	.	8a/J	.	8dd\J	.	.	.	.	.	.	.	.
=10	=10	=10	=10	=10	=10	=10	=10	=10	=10	=10	=10	=10	=10	=10	=10	=10
!	!	!	!	!	!	!LO:PB:g=original	!	!	!	!	!	!	!	!	!	!
.	.	.	.	.	.	.	.	32qqaa/LLL	.	.	.	.	.	.	.	.
.	.	.	.	.	.	.	.	32qqgg/	.	.	.	.	.	.	.	.
.	.	.	.	.	.	.	.	32qqff#/	.	.	.	.	.	.	.	.
.	.	.	.	.	.	.	.	32qqgg/JJJ	.	.	.	.	.	.	.	.
4G\	.	2g\	Je-	8G/L	.	8B/L	.	2gg\	.	2.r	.	2.r	2.r	.	2.r	.
.	.	.	.	8B/	.	8d/	.	.	.	.	.	.	.	.	.	.
4r	.	.	.	8G/	.	8B/	.	.	.	.	.	.	.	.	.	.
.	.	.	.	8B/	.	8d/	.	.	.	.	.	.	.	.	.	.
4r	.	4g\	-su	8G/	.	8B/	.	4gg\	.	.	.	.	.	.	.	.
.	.	.	.	8B/J	.	8d/J	.	.	.	.	.	.	.	.	.	.
=11	=11	=11	=11	=11	=11	=11	=11	=11	=11	=11	=11	=11	=11	=11	=11	=11
!LO:PB:g=original	!	!LO:TX:t=P:znak rpetycji tekstu:problem	!	!	!	!	!	!	!	!	!	!	!	!	!	!
4G\	.	2b\	{Je-	8G/L	.	8B/L	.	2bb\	.	2.r	.	2.r	2.r	.	2.r	.
.	.	.	.	8B/	.	8d/	.	.	.	.	.	.	.	.	.	.
4r	.	.	.	8G/	.	8B/	.	.	.	.	.	.	.	.	.	.
.	.	.	.	8B/	.	8d/	.	.	.	.	.	.	.	.	.	.
4r	.	4b\	-su}	8G/	.	8B/	.	4bb\	.	.	.	.	.	.	.	.
.	.	.	.	8B/J	.	8d/J	.	.	.	.	.	.	.	.	.	.
=12	=12	=12	=12	=12	=12	=12	=12	=12	=12	=12	=12	=12	=12	=12	=12	=12
!	!	!	!	!LO:PB:g=original	!	!	!	!	!	!	!	!	!	!	!	!
.	.	8qqb/	.	.	.	.	.	8qbb/	.	.	.	.	.	.	.	.
4D\	.	4a\	a-	8A/L	.	8c/L	.	4aa\	.	2.r	.	2.r	2.r	.	2.r	.
.	.	.	.	8c\	.	8d/	.	.	.	.	.	.	.	.	.	.
4r	.	4g\	-mor-	8A/	.	8c/	.	4gg\	.	.	.	.	.	.	.	.
.	.	.	.	8c\	.	8d/	.	.	.	.	.	.	.	.	.	.
4r	.	4a\	.	8A/	.	8c/	.	4aa\	.	.	.	.	.	.	.	.
.	.	.	.	8c\J	.	8d/J	.	.	.	.	.	.	.	.	.	.
=13	=13	=13	=13	=13	=13	=13	=13	=13	=13	=13	=13	=13	=13	=13	=13	=13
!	!	!LO:PB:g=original	!	!	!	!	!	!LO:PB:g=original	!	!	!	!	!	!	!	!
4G\	.	4g\	-mi	8G/L	.	8B/L	.	4gg\	.	2.r	.	2.r	2.r	.	2.r	.
.	.	.	.	8B/J	.	8d/J	.	.	.	.	.	.	.	.	.	.
4r	.	4r	.	4G/	.	4B/	.	4r	.	.	.	.	.	.	.	.
4r	.	4ee\	o	4r	.	4r	.	4ee\	.	.	.	.	.	.	.	.
=14	=14	=14	=14	=14	=14	=14	=14	=14	=14	=14	=14	=14	=14	=14	=14	=14
!	!	!	!	!	!	!	!	!	!LO:DY:a	!	!	!	!	!	!	!
4d\	.	4g#X\	Je-	4d\	.	2e/	.	(<4g#X/	f	2.r	.	2.r	2.r	.	2.r	.
!	!	!	!	!	!	!	!	!	!LO:DY:a	!	!	!	!	!	!	!
4c\	.	4a\	-su	4c\	.	.	.	4a/)	p	.	.	.	.	.	.	.
4r	.	4dd\	.	4r	.	4r	.	4dd\'	.	.	.	.	.	.	.	.
=15	=15	=15	=15	=15	=15	=15	=15	=15	=15	=15	=15	=15	=15	=15	=15	=15
4c\	.	4f#/	o	4c/	.	2d/	.	4f#/	.	2.r	.	2.r	2.r	.	2.r	.
4B\	.	4gn\	Je-	4B/	.	.	.	4gn/	.	.	.	.	.	.	.	.
4G\	.	8b\L	-su	4G/	.	8g/L	.	8b\L	.	.	.	.	.	.	.	.
.	.	8dd\J	o	.	.	8b\J	.	8dd\J	.	.	.	.	.	.	.	.
=16	=16	=16	=16	=16	=16	=16	=16	=16	=16	=16	=16	=16	=16	=16	=16	=16
2.D\	.	8.dd\L	Je-	2.d\	.	8.b\L	.	8.dd\L	.	4r	.	4r	4r	.	4r	.
.	.	16cc\Jk	-su	.	.	16a/Jk	.	16cc\Jk	.	.	.	.	.	.	.	.
!	!	!	!	!	!	!LO:SIC:v=przekreślona belka ósemek.POMYŁKA.	!	!	!	!	!	!	!	!	!	!
!	!	!	!	!	!	!LO:N:vis=8	!	!	!	!	!	!	!	!	!	!
.	.	4b\	.	.	.	4g/L	.	4b\	.	4g/	.	4b\	(>4gg\	.	(>4bb\	.
!	!	!	!	!	!	!LO:N:vis=8	!	!	!	!	!	!	!	!	!	!
.	.	4a\	Cha-	.	.	4f#/J	.	4a/	.	4d/	.	4a/	4ff#\)	.	4aa\)	.
=17	=17	=17	=17	=17	=17	=17	=17	=17	=17	=17	=17	=17	=17	=17	=17	=17
2G\	.	4a\	.	2G/	.	4f#/	.	(>4a\	.	4d/	.	4a/	(>4ff#\	.	(>4aa\	.
.	.	4b\	-re	.	.	4g/	.	4b\)	.	4g/	.	4b\	4gg\)	.	4bb\)	.
4r	.	4r	.	4r	.	4r	.	4ee\	.	4r	.	4r	4r	.	4r	.
=18	=18	=18	=18	=18	=18	=18	=18	=18	=18	=18	=18	=18	=18	=18	=18	=18
!	!	!	!	!	!	!LO:SIC:o:v=brak taktów18-21	!	!	!LO:DY:a	!	!	!	!	!	!	!
4d\	.	4r	.	4d\	.	2.r	.	(<4g#X/	f	2.r	.	2.r	2.r	.	2.r	.
!	!	!	!	!	!	!	!	!	!LO:DY:a	!	!	!	!	!	!	!
4c\	.	4r	.	4c\	.	.	.	4a/)	p	.	.	.	.	.	.	.
4r	.	4dd\	O	4r	.	.	.	4dd\	.	.	.	.	.	.	.	.
=19	=19	=19	=19	=19	=19	=19	=19	=19	=19	=19	=19	=19	=19	=19	=19	=19
!	!	!	!	!	!	!	!	!	!LO:DY:a	!	!	!	!	!	!	!
4c\	.	4f#/	Je-	4c/	.	2.r	.	4f#/	f	2.r	.	2.r	2.r	.	2.r	.
!	!	!	!	!	!	!	!	!	!LO:DY:a	!	!	!	!	!	!	!
4B\	.	4gn\	-su	4B/	.	.	.	4gn/	p	.	.	.	.	.	.	.
4G\	.	8b\L	o	4G/	.	.	.	8b\L	.	.	.	.	.	.	.	.
.	.	8dd\J	.	.	.	.	.	8dd\J	.	.	.	.	.	.	.	.
=20	=20	=20	=20	=20	=20	=20	=20	=20	=20	=20	=20	=20	=20	=20	=20	=20
2.D\	.	8.dd\L	Je-	2.d\	.	2.r	.	8dd\L	.	4r	.	4r	4r	.	4r	.
.	.	.	.	.	.	.	.	8cc\J	.	.	.	.	.	.	.	.
.	.	16cc\Jk	-su	.	.	.	.	.	.	.	.	.	.	.	.	.
.	.	4b\	.	.	.	.	.	4b\	.	4g/	.	4b\	4gg\	.	4bb\	.
.	.	4a\	Cha-	.	.	.	.	4a/	.	4d/	.	4a/	8dd\L	.	4aa\	.
.	.	.	.	.	.	.	.	.	.	.	.	.	8cc\J	.	.	.
=21	=21	=21	=21	=21	=21	=21	=21	=21	=21	=21	=21	=21	=21	=21	=21	=21
4G\	.	4g\	-re	4G/	.	2.r	.	4g/	.	8B/L	.	8g/L	8b\L	.	8gg\L	.
.	.	.	.	.	.	.	.	.	.	8B/J	.	8g/J	8b\J	.	8gg\J	.
4r	.	4r	.	4r	.	.	.	4r	.	4B/	.	4g/	4b\	.	4gg\	.
4r	.	4r	.	4r	.	.	.	4r	.	4r	.	4r	4r	.	4r	.
=22	=22	=22	=22	=22	=22	=22	=22	=22	=22	=22	=22	=22	=22	=22	=22	=22
!	!LO:DY:a	!	!	!	!	!LO:SIC:v=takt 18	!LO:DY:a	!	!LO:DY:a	!	!	!	!	!	!LO:PB:g=original	!
!LO:TX:a:i:t=forte	!	!	!	!	!	!	!	!LO:TX:t=P:forte zapisane jako :For":problem	!	!	!	!	!	!	!	!
8.D\'L	fy	2.r	.	8.d\'L	.	8.d/L	f	8.dd\'L	f	2.r	.	2.r	8.dd\`L	.	8.dd\L	.
16C#X/'K	.	.	.	16c#X\'K	.	16c#X/K	.	16cc#X\'K	.	.	.	.	16cc#X\`K	.	16cc#X\K	.
8.D\'	.	.	.	8.d\'	.	8.d/	.	8.dd\'	.	.	.	.	8.dd\`	.	8.dd\	.
16E\'K	.	.	.	16e\'K	.	16e/K	.	16ee\'K	.	.	.	.	16ee\`K	.	16ee\K	.
8.F#\'	.	.	.	8.f#\'	.	8.f#/	.	8.ff#\'	.	.	.	.	8.ff#\`	.	8.ff#\	.
16D\'Jk	.	.	.	16e\'Jk	.	16d/Jk	.	16dd\'Jk	.	.	.	.	16dd\`Jk	.	16dd\Jk	.
=23	=23	=23	=23	=23	=23	=23	=23	=23	=23	=23	=23	=23	=23	=23	=23	=23
!LO:PB:g=original	!	!LO:PB:g=original	!	!LO:PB:g=original	!	!	!	!	!	!	!	!	!LO:PB:g=original	!	!	!
8.E\L	.	4r	.	8.e\L	.	8.e/L	.	8ee\L	.	2.r	.	2.r	8ee\L	.	8ee\L	.
.	.	.	.	.	.	.	.	8cc#X\J	.	.	.	.	8cc#X\J	.	8cc#X\J	.
16C#X/Jk	.	.	.	16c#X\Jk	.	16c#X/Jk	.	.	.	.	.	.	.	.	.	.
4AA/	.	4r	.	4A/	.	4A/	.	4a/	.	.	.	.	4a/	.	4a/	.
4r	.	4a\	Te	4r	.	4r	.	4r	.	.	.	.	4r	.	4r	.
=24	=24	=24	=24	=24	=24	=24	=24	=24	=24	=24	=24	=24	=24	=24	=24	=24
!	!LO:DY:a	!	!	!	!	!	!	!LO:PB:g=original	!LO:DY:a	!	!	!	!	!	!	!LO:DY:a
4AA/	p	2cc#X\	ſo-	8r	.	8r	.	4r	p	2.r	.	2.r	2.ee\	.	2.gg\	p
!	!	!	!	!	!	!	!LO:DY:a	!	!	!	!	!	!	!	!	!
.	.	.	.	8e\	.	8g/	p	.	.	.	.	.	.	.	.	.
4r	.	.	.	8e\L	.	8g/L	.	(>8aa\L	.	.	.	.	.	.	.	.
!	!	!	!	!	!	!	!	!LO:TX:t=P:mixed beam:problem	!	!	!	!	!	!	!	!
.	.	.	.	8e\	.	8g/	.	8a/J)	.	.	.	.	.	.	.	.
4r	.	4a\	-lum	8e\	.	8g/	.	4aa\	.	.	.	.	.	.	.	.
.	.	.	.	8e\J	.	8g/J	.	.	.	.	.	.	.	.	.	.
=25	=25	=25	=25	=25	=25	=25	=25	=25	=25	=25	=25	=25	=25	=25	=25	=25
!	!	!	!	!	!	!LO:PB:g=original	!	!	!	!	!	!	!	!	!	!
4AA/	.	2dd\	ſo-	8r	.	8r	.	4r	.	2.r	.	2.r	2.dd\	.	2.ff#\	.
.	.	.	.	8d\	.	8f#/	.	.	.	.	.	.	.	.	.	.
4r	.	.	.	8d\L	.	8f#/L	.	(>8aa\L	.	.	.	.	.	.	.	.
!	!	!	!	!	!	!	!	!LO:TX:t=P:mixed beam:problem	!	!	!	!	!	!	!	!
.	.	.	.	8d\	.	8f#/	.	8a/J)	.	.	.	.	.	.	.	.
4AA/	.	4a\	-lum	8d\	.	8f#/	.	4aa\	.	.	.	.	.	.	.	.
.	.	.	.	8d\J	.	8f#/J	.	.	.	.	.	.	.	.	.	.
=26	=26	=26	=26	=26	=26	=26	=26	=26	=26	=26	=26	=26	=26	=26	=26	=26
4AA/	.	4ee\	de-	8r	.	8r	.	4r	.	2.r	.	2.r	2.cc#X\	.	2.ee\	.
.	.	.	.	8c#X\	.	8e/	.	.	.	.	.	.	.	.	.	.
4r	.	4.ee\	-ſi-	8c#\L	.	8e/L	.	(8aa\L	.	.	.	.	.	.	.	.
!	!	!	!	!	!	!	!	!LO:TX:t=P:mixed beam:problem	!	!	!	!	!	!	!	!
.	.	.	.	8c#\	.	8e/	.	8a/J)	.	.	.	.	.	.	.	.
4r	.	.	.	8c#\	.	8e/	.	4aa\	.	.	.	.	.	.	.	.
.	.	8g/	-de-	8c#\J	.	8e/J	.	.	.	.	.	.	.	.	.	.
=27	=27	=27	=27	=27	=27	=27	=27	=27	=27	=27	=27	=27	=27	=27	=27	=27
*	*	*	*	*^	*	*	*	*	*	*	*	*	*	*	*	*
2.D\	.	4f#/	-rat	4d/	2ryy	.	4f#/	.	4ff#\	.	2.r	.	2.r	4dd\	.	4ff#\	.
.	.	4r	.	4r	.	.	4r	.	4r	.	.	.	.	4r	.	4r	.
.	.	4dd\	de-	4b\	4dd/	.	4bb\	.	4ddd\	.	.	.	.	4r	.	4r	.
=28	=28	=28	=28	=28	=28	=28	=28	=28	=28	=28	=28	=28	=28	=28	=28	=28	=28
2.D\	.	4dd\	-ſi-	4b\	4dd/	.	(>4bb\	.	(>4ddd\	.	2.r	.	2.r	2.r	.	2.r	.
!	!	!	!	!LO:SIC:v=c zamiast cis	!	!	!	!	!	!	!	!	!	!	!	!	!
.	.	4cc#X\	-de-	4a\	4cc/	.	4aa\)	.	4ccc#X\)	.	.	.	.	.	.	.	.
.	.	4b\	-rat	4g\	4b/	.	4gg\	.	4bb\'	.	.	.	.	.	.	.	.
=29	=29	=29	=29	=29	=29	=29	=29	=29	=29	=29	=29	=29	=29	=29	=29	=29	=29
2.D\	.	4a\	a-	4f#\	4a/	.	4ff#\	.	4aa\	.	2.r	.	2.r	2.r	.	2.r	.
.	.	8f#/	-ni-	4d\	4f#/	.	4dd\	.	4ff#\	.	.	.	.	.	.	.	.
.	.	8f#/	-ma	.	.	.	.	.	.	.	.	.	.	.	.	.	.
.	.	8gL/	me-	8eL\	8gL/	.	8ee\L	.	8gg\L	.	.	.	.	.	.	.	.
.	.	8b\J	.	8gJ\	8bJ/	.	8gg\J	.	8bb\J	.	.	.	.	.	.	.	.
=30	=30	=30	=30	=30	=30	=30	=30	=30	=30	=30	=30	=30	=30	=30	=30	=30	=30
!	!	!	!	!	!	!	!	!	!	!	!LO:PB:g=original	!	!	!	!	!	!
2D\	.	4a\	-a	4f#\	4a/	.	4ff#\	.	4aa\	.	4r	.	4r	4r	.	4r	.
.	.	4r	.	4r	2r	.	4r	.	4r	.	2D/	.	2d/	4r	.	4r	.
4r	.	4r	.	4r	.	.	4r	.	4r	.	.	.	.	8.dd\L	.	8.ff#\L	.
.	.	.	.	.	.	.	.	.	.	.	.	.	.	16ee\Jk	.	16gg\Jk	.
*	*	*	*	*v	*v	*	*	*	*	*	*	*	*	*	*	*	*
=31	=31	=31	=31	=31	=31	=31	=31	=31	=31	=31	=31	=31	=31	=31	=31	=31
!	!	!	!	!	!	!	!	!	!	!	!	!LO:PB:g=original	!	!	!	!
2.r	.	4r	.	2.r	.	2.r	.	2.r	.	2D/	.	2d/	4ff#\	.	4aa\	.
.	.	4r	.	.	.	.	.	.	.	.	.	.	4dd\	.	4ff#\	.
.	.	4a\	te	.	.	.	.	.	.	4r	.	4r	4r	.	4r	.
=32	=32	=32	=32	=32	=32	=32	=32	=32	=32	=32	=32	=32	=32	=32	=32	=32
4AA/	.	2cc#X\	ſo-	8r	.	8r	.	4r	.	2.r	.	2.r	2.ee\	.	2.gg\	.
.	.	.	.	8e\	.	8g/	.	.	.	.	.	.	.	.	.	.
4r	.	.	.	8e\L	.	8g/L	.	(>8aa\L	.	.	.	.	.	.	.	.
!	!	!	!	!	!	!	!	!LO:TX:t=P:mixed beam:problem	!	!	!	!	!	!	!	!
.	.	.	.	8e\	.	8g/	.	8a/J)	.	.	.	.	.	.	.	.
4r	.	4a\	-lum	8e\	.	8g/	.	4aa\	.	.	.	.	.	.	.	.
.	.	.	.	8e\J	.	8g/J	.	.	.	.	.	.	.	.	.	.
=33	=33	=33	=33	=33	=33	=33	=33	=33	=33	=33	=33	=33	=33	=33	=33	=33
!	!	!	!	!LO:PB:g=original	!	!	!	!	!	!	!	!	!	!	!	!
4AA/	.	2dd\	ſo-	8r	.	8r	.	4r	.	2.r	.	2.r	2.dd\	.	2.ff#\	.
.	.	.	.	8d\	.	8f#/	.	.	.	.	.	.	.	.	.	.
4r	.	.	.	8d\L	.	8f#/L	.	(>8aa\L	.	.	.	.	.	.	.	.
!	!	!	!	!	!	!	!	!LO:TX:t=P:mixed beam:problem	!	!	!	!	!	!	!	!
.	.	.	.	8d\	.	8f#/	.	8a/J)	.	.	.	.	.	.	.	.
4r	.	4a\	-lum	8d\	.	8f#/	.	4aa\	.	.	.	.	.	.	.	.
.	.	.	.	8d\J	.	8f#/J	.	.	.	.	.	.	.	.	.	.
=34	=34	=34	=34	=34	=34	=34	=34	=34	=34	=34	=34	=34	=34	=34	=34	=34
4AA/	.	4ee\	de-	8r	.	8r	.	4r	.	2.r	.	2.r	2.cc#X\	.	2.ee\	.
.	.	.	.	8c#X\	.	8e/	.	.	.	.	.	.	.	.	.	.
4r	.	4.ee\	-ſi-	8c#\L	.	8e/L	.	8aa\L	.	.	.	.	.	.	.	.
!	!	!	!	!	!	!	!	!LO:TX:t=P:mixed beam:problem	!	!	!	!	!	!	!	!
.	.	.	.	8c#\	.	8e/	.	8a/J	.	.	.	.	.	.	.	.
4r	.	.	.	8c#\	.	8e/	.	4aa\	.	.	.	.	.	.	.	.
.	.	8g/	-de-	8c#\J	.	8e/J	.	.	.	.	.	.	.	.	.	.
=35	=35	=35	=35	=35	=35	=35	=35	=35	=35	=35	=35	=35	=35	=35	=35	=35
!	!	!LO:PB:g=original	!	!	!	!	!	!LO:PB:g=original	!	!	!	!	!	!	!	!LO:PB:g=original
*	*	*	*	*^	*	*	*	*	*	*	*	*	*	*	*	*
4D\	.	4f#/	-rat	4d\	2ryy	.	4f#/	.	4ff#\	.	2.r	.	2.r	4dd\	.	4ff#\	.
4r	.	4r	.	4r	.	.	4r	.	4r	.	.	.	.	4r	.	4r	.
4r	.	4dd\	de-	4b\	4dd/	.	4bb\	.	4ddd\	.	.	.	.	4r	.	4r	.
=36	=36	=36	=36	=36	=36	=36	=36	=36	=36	=36	=36	=36	=36	=36	=36	=36	=36
!LO:PB:g=original	!	!	!	!	!	!	!	!	!	!	!	!	!	!LO:PB:g=original	!	!	!
2.r	.	4.dd\	-ſi-	4b\	4dd/	.	(>4bb\	.	(4ddd\	.	2.r	.	2.r	2.r	.	2.r	.
.	.	.	.	4g\	4b/	.	4gg\)	.	4bb\)	.	.	.	.	.	.	.	.
.	.	8b\	-de-	.	.	.	.	.	.	.	.	.	.	.	.	.	.
.	.	4b\	-rat	4g\	4b/	.	4gg\	.	4bb\'	.	.	.	.	.	.	.	.
=37	=37	=37	=37	=37	=37	=37	=37	=37	=37	=37	=37	=37	=37	=37	=37	=37	=37
!	!	!	!	!	!	!	!LO:PB:g=original	!	!	!	!	!	!	!	!	!	!
4r	.	4b\	a-	4g\	4b/	.	4gg\	.	(>4bb\	.	2.r	.	2.r	4r	.	4r	.
4r	.	4g\	-ni-	4e\	4g/	.	4ee\	.	4gg\)	.	.	.	.	4r	.	4r	.
4AA/	.	4g\	-ma	4e\	4g/	.	4ee\	.	4gg\'	.	.	.	.	4ee\	.	4gg\	.
=38	=38	=38	=38	=38	=38	=38	=38	=38	=38	=38	=38	=38	=38	=38	=38	=38	=38
2D/	.	4f#/	me-	4d\	4f#/	.	4dd\	.	4ff#\	.	2.r	.	2.r	4dd\	.	4ff#\	.
.	.	8aL/	.	8f#L\	8aL/	.	8ff#\L	.	(>8aa\L	.	.	.	.	8ff#\L	.	8aa\L	.
.	.	8g\J	.	8e\	8g/	.	8ee\	.	8ff#\)	.	.	.	.	8ee\	.	8gg\	.
4AA/	.	8f#L/	=	8d\	8f#/	.	8dd\	.	8ff#\'	.	.	.	.	8dd\	.	8ff#\	.
.	.	8e/J	.	8c#XJ\	8eJ/	.	8cc#X\J	.	8ee#\'J	.	.	.	.	8a/J	.	8ee\J	.
=39	=39	=39	=39	=39	=39	=39	=39	=39	=39	=39	=39	=39	=39	=39	=39	=39	=39
4D\	.	4f#/	-a	4d\	4d\	.	4dd\	.	4ff#\	.	2.r	.	2.r	4dd\	.	4ff#\	.
4r	.	4r	.	4r\	4r	.	4r	.	4r	.	.	.	.	4r	.	4r	.
4r	.	4dd\	de-	4b\	4dd/	.	4b\	.	4dd\	.	.	.	.	4r	.	4r	.
=40	=40	=40	=40	=40	=40	=40	=40	=40	=40	=40	=40	=40	=40	=40	=40	=40	=40
2.r	.	4.dd\	-ſi-	4b\	4dd/	.	(<4b/	.	(>4dd\	.	2.r	.	2.r	2.r	.	2.r	.
.	.	.	.	4g\	4b/	.	4g/)	.	4b\)	.	.	.	.	.	.	.	.
.	.	8b\	-de-	.	.	.	.	.	.	.	.	.	.	.	.	.	.
.	.	4b\	-rat	4g\	4b/	.	4g/	.	4b\'	.	.	.	.	.	.	.	.
=41	=41	=41	=41	=41	=41	=41	=41	=41	=41	=41	=41	=41	=41	=41	=41	=41	=41
4r	.	4b\	.	4g\	4b/	.	(<4g/	.	(<4b/	.	2.r	.	2.r	4r	.	4r	.
4r	.	4g\	a-	4e\	4g/	.	4e/)	.	4g/)	.	.	.	.	4r	.	4r	.
4AA/	.	4g\	-ni-	4e\	4g/	.	4e/	.	4g/'	.	.	.	.	4ee\	.	4gg\	.
=42	=42	=42	=42	=42	=42	=42	=42	=42	=42	=42	=42	=42	=42	=42	=42	=42	=42
2D\	.	4f#/	-ma	4d\	4f#/	.	4d/	.	(<4f#/	.	2.r	.	2.r	4dd\	.	4ff#\	.
.	.	8aL/	me-	8f#L\	8aL/	.	8f#/L	.	8a/L	.	.	.	.	8ff#\L	.	8aa\L	.
.	.	8g\J	.	8e\	8g/	.	8e/	.	8g/)	.	.	.	.	8ee\	.	8gg\	.
4AA/	.	8f#/L	.	8d\	8f#/	.	8d/	.	8f#/'	.	.	.	.	8dd\	.	8ff#\	.
.	.	8e/J	.	8c#XJ\	8eJ/	.	8c#X/J	.	8e/'J	.	.	.	.	8a/J	.	8ee\J	.
=43	=43	=43	=43	=43	=43	=43	=43	=43	=43	=43	=43	=43	=43	=43	=43	=43	=43
4D\	.	2d/;	-a	4d;>\	4d\	.	4d/;	.	4d/;	.	4r	.	4r	4f#/	.	4dd\;	.
4r;	.	.	.	4r	4ryy	.	4r	.	4r	.	4r;	.	4r;	4r;	.	4r	.
4r	.	4d/	O	4r	4ryy	.	4r	.	4dd\	.	4r	.	4r	4r	.	4r	.
*	*	*	*	*v	*v	*	*	*	*	*	*	*	*	*	*	*	*
=44	=44	=44	=44	=44	=44	=44	=44	=44	=44	=44	=44	=44	=44	=44	=44	=44
!LO:TX:a:i:t=piano	!LO:DY:a	!	!	!	!	!	!LO:DY:a	!	!	!	!	!	!	!	!	!
4G\	py	2g\	Je-	(<8G/L	.	(8B/L	p	2gg\	.	2.B/	.	2.g/	2.r	.	2.r	.
.	.	.	.	8B/	.	8d/	.	.	.	.	.	.	.	.	.	.
4r	.	.	.	8G/	.	8B/	.	.	.	.	.	.	.	.	.	.
.	.	.	.	8B/	.	8d/	.	.	.	.	.	.	.	.	.	.
4r	.	4g\	-su	8G/	.	8B/	.	4gg\	.	.	.	.	.	.	.	.
.	.	.	.	8B/J)	.	8d/J)	.	.	.	.	.	.	.	.	.	.
=45	=45	=45	=45	=45	=45	=45	=45	=45	=45	=45	=45	=45	=45	=45	=45	=45
.	.	8qqcc/	.	.	.	.	.	.	.	.	.	.	.	.	.	.
4G\	.	2b\	Je-	(<8G/L	.	(<8B/L	.	2bb\	.	2.g/	.	2.b\	2.r	.	2.r	.
.	.	.	.	8B/	.	8d/	.	.	.	.	.	.	.	.	.	.
4r	.	.	.	8G/	.	8B/	.	.	.	.	.	.	.	.	.	.
.	.	.	.	8B/	.	8d/	.	.	.	.	.	.	.	.	.	.
4r	.	4b\	-su	8G/	.	8B/	.	4bb\	.	.	.	.	.	.	.	.
.	.	.	.	8B/J)	.	8d/J)	.	.	.	.	.	.	.	.	.	.
=46	=46	=46	=46	=46	=46	=46	=46	=46	=46	=46	=46	=46	=46	=46	=46	=46
.	.	8qqb/	.	.	.	.	.	8qbb/	.	.	.	.	.	.	.	.
4D\	.	4a\	a-	(<8A/L	.	(<8c/L	.	4aa\	.	4d/	.	4a/	2.r	.	2.r	.
.	.	.	.	8B/	.	8d/	.	.	.	.	.	.	.	.	.	.
4r	.	4g\	-mor-	8A/	.	8c/	.	4gg\	.	4r	.	4r	.	.	.	.
.	.	.	.	8B/	.	8d/	.	.	.	.	.	.	.	.	.	.
4r	.	4a\	.	8A/	.	8c/	.	4aa\	.	4d/	.	4a/	.	.	.	.
.	.	.	.	8B/J)	.	8d/J)	.	.	.	.	.	.	.	.	.	.
=47	=47	=47	=47	=47	=47	=47	=47	=47	=47	=47	=47	=47	=47	=47	=47	=47
!	!	!LO:PB:g=original	!	!	!	!	!	!	!	!	!	!	!	!	!	!
4G\	.	4g\	-mi	8G/L	.	(<8B/L	.	4gg\	.	4B/	.	4g/	2.r	.	2.r	.
.	.	.	.	8B/J	.	8d/J)	.	.	.	.	.	.	.	.	.	.
4r	.	4r	.	4G/	.	4B/	.	4r	.	4r	.	4r	.	.	.	.
4r	.	4dd\	o	4r	.	4r	.	4dd\	.	4r	.	4r	.	.	.	.
=48	=48	=48	=48	=48	=48	=48	=48	=48	=48	=48	=48	=48	=48	=48	=48	=48
!	!	!	!	!	!	!LO:PB:g=original	!	!	!	!	!	!	!	!	!	!
4G\	.	4dd\	Je-	8G/L	.	(<8B/L	.	4dd\	.	2.r	.	2.r	2.r	.	2.r	.
.	.	.	.	8G/	.	8d/	.	.	.	.	.	.	.	.	.	.
4r	.	4b\	-su	8G/	.	8B/	.	4b\	.	.	.	.	.	.	.	.
.	.	.	.	8G/	.	8d/	.	.	.	.	.	.	.	.	.	.
4r	.	4gg\	.	8G/	.	8B/	.	4gg\	.	.	.	.	.	.	.	.
.	.	.	.	8G/J	.	8d/J)	.	.	.	.	.	.	.	.	.	.
=49	=49	=49	=49	=49	=49	=49	=49	=49	=49	=49	=49	=49	=49	=49	=49	=49
!LO:PB:g=original	!	!	!	!	!	!	!	!LO:PB:g=original	!	!	!	!	!	!	!	!
4G\	.	4dd\	Je-	8G/L	.	(<8B/L	.	4dd\	.	4r	.	4r	2.r	.	2.r	.
.	.	.	.	8G/	.	8d/	.	.	.	.	.	.	.	.	.	.
4r	.	4b\	-su	8G/	.	8B/	.	4b\	.	4r	.	4r	.	.	.	.
.	.	.	.	8G/	.	8d/	.	.	.	.	.	.	.	.	.	.
4r	.	4g\	Cha-	8G/	.	8B/	.	4g/	.	4g/	.	4b\	.	.	.	.
.	.	.	.	8G/J	.	8d/J)	.	.	.	.	.	.	.	.	.	.
=50	=50	=50	=50	=50	=50	=50	=50	=50	=50	=50	=50	=50	=50	=50	=50	=50
4D\	.	4a\	-re	4A/	.	4F#/	.	4a/	.	4d/	.	4a/	4r	.	4r	.
4r	.	4r	.	4r	.	4r	.	4r	.	4r	.	4r	8ff#\L	.	8aa\L	.
.	.	.	.	.	.	.	.	.	.	.	.	.	8gg\	.	8bb\	.
4r	.	4r	.	4r	.	4r	.	4r	.	4r	.	4r	8aa\	.	8ccc\	.
.	.	.	.	.	.	.	.	.	.	.	.	.	8ff#\J	.	8aa\J	.
=51	=51	=51	=51	=51	=51	=51	=51	=51	=51	=51	=51	=51	=51	=51	=51	=51
!	!	!	!	!	!	!	!	!	!	!	!	!	!	!	!LO:PB:g=original	!
2.r	.	4r	.	2.r	.	4ff#\	.	4aa\	.	2.r	.	2.r	2.r	.	2.r	.
!	!	!	!	!	!	!	!LO:DY:a	!	!	!	!	!	!	!	!	!
.	.	4r	.	.	.	8ff#\L	f	8aa\L	.	.	.	.	.	.	.	.
.	.	.	.	.	.	8gg\	.	8bb\	.	.	.	.	.	.	.	.
.	.	4d/	O	.	.	8aa\	.	8ccc\	.	.	.	.	.	.	.	.
!	!	!	!	!	!	!LO:TX:t=P:mixed beam:problem	!	!	!	!	!	!	!	!	!	!
.	.	.	.	.	.	8a/J	.	8dd\J	.	.	.	.	.	.	.	.
=52	=52	=52	=52	=52	=52	=52	=52	=52	=52	=52	=52	=52	=52	=52	=52	=52
.	.	.	.	.	.	.	.	32qqaa/LLL	.	.	.	.	.	.	.	.
.	.	.	.	.	.	.	.	32qqgg/	.	.	.	.	.	.	.	.
.	.	.	.	.	.	.	.	32qqff#/	.	.	.	.	.	.	.	.
.	.	.	.	.	.	.	.	32qqgg/JJJ	.	.	.	.	.	.	.	.
!	!	!	!	!	!	!	!LO:DY:a	!	!	!	!	!	!	!	!	!
4G\	.	2g\	Je-	(<8G/L	.	(<8B/L	p	2gg\	.	2.r	.	2.r	2.r	.	2.r	.
.	.	.	.	8B/	.	8d/	.	.	.	.	.	.	.	.	.	.
4r	.	.	.	8G/	.	8B/	.	.	.	.	.	.	.	.	.	.
.	.	.	.	8B/	.	8d/	.	.	.	.	.	.	.	.	.	.
4r	.	4g\	-su	8G/	.	8B/	.	4gg\	.	.	.	.	.	.	.	.
.	.	.	.	8B/J)	.	8d/J)	.	.	.	.	.	.	.	.	.	.
=53	=53	=53	=53	=53	=53	=53	=53	=53	=53	=53	=53	=53	=53	=53	=53	=53
.	.	8qqcc/	.	.	.	.	.	.	.	.	.	.	.	.	.	.
4G\	.	2b\	Je-	(<8G/L	.	(<8B/L	.	2bb\	.	2.r	.	2.r	2.r	.	2.r	.
.	.	.	.	8B/	.	8d/	.	.	.	.	.	.	.	.	.	.
4r	.	.	.	8G/	.	8B/	.	.	.	.	.	.	.	.	.	.
.	.	.	.	8B/	.	8d/	.	.	.	.	.	.	.	.	.	.
4r	.	4b\	-su	8G/	.	8B/	.	4bb\	.	.	.	.	.	.	.	.
.	.	.	.	8B/J)	.	8d/J)	.	.	.	.	.	.	.	.	.	.
=54	=54	=54	=54	=54	=54	=54	=54	=54	=54	=54	=54	=54	=54	=54	=54	=54
.	.	8qqb/	.	.	.	.	.	8qbb/	.	.	.	.	.	.	.	.
4C/	.	(>4a\	a-	(<8A/L	.	(<8c/L	.	4aa\	.	2.r	.	2.r	2.r	.	2.r	.
.	.	.	.	8B/	.	8d/	.	.	.	.	.	.	.	.	.	.
4r	.	4g\)	-mor-	8A/	.	8c/	.	4gg\	.	.	.	.	.	.	.	.
.	.	.	.	8B/	.	8d/	.	.	.	.	.	.	.	.	.	.
4r	.	4a\	-mi	8A/	.	8c/	.	4aa\	.	.	.	.	.	.	.	.
.	.	.	.	8B/J)	.	8d/J)	.	.	.	.	.	.	.	.	.	.
=55	=55	=55	=55	=55	=55	=55	=55	=55	=55	=55	=55	=55	=55	=55	=55	=55
!	!	!	!	!LO:PB:g=original	!	!	!	!	!	!	!	!	!	!	!	!
4G\	.	4g\	.	8G/L	.	(<8B/L	.	4gg\	.	2.r	.	2.r	2.r	.	2.r	.
.	.	.	.	8B/J	.	8d/J)	.	.	.	.	.	.	.	.	.	.
4r	.	4r	.	4G/	.	4B/	.	4r	.	.	.	.	.	.	.	.
4r	.	4ee\	te	4r	.	4r	.	4ee\	.	.	.	.	.	.	.	.
=56	=56	=56	=56	=56	=56	=56	=56	=56	=56	=56	=56	=56	=56	=56	=56	=56
!	!	!	!	!	!	!	!	!	!LO:DY:a	!	!	!	!	!	!	!
4d\	.	4g#X\	ſo-	4d\	.	2e/	.	(<4g#X/	f	2.r	.	2.r	2.r	.	2.r	.
!	!	!	!	!	!	!	!	!	!LO:DY:a	!	!	!	!	!	!	!
4c\	.	4a\	-lum	4c\	.	.	.	4a/)	p	.	.	.	.	.	.	.
!	!	!	!	!	!	!	!LO:DY:a	!	!	!	!	!	!	!	!	!
4r	.	4dd\	.	4r	.	4r	p	4dd\'	.	.	.	.	.	.	.	.
=57	=57	=57	=57	=57	=57	=57	=57	=57	=57	=57	=57	=57	=57	=57	=57	=57
!	!	!	!	!	!	!	!	!	!LO:DY:a	!	!	!	!	!	!	!
4c\	.	8f#X/	de-	4c/	.	2d/	.	(<4f#/	f	2.r	.	2.r	2.r	.	2.r	.
.	.	8f#/	-ſi-	.	.	.	.	.	.	.	.	.	.	.	.	.
!	!	!LO:SIC:v=niejednoznaczny zapis ozdobnik lub znak chromatyczny	!	!	!	!	!	!	!LO:DY:a	!	!	!	!	!	!	!
4B\	.	4g\	-de-	4B/	.	.	.	4gn/)	p	.	.	.	.	.	.	.
4G\	.	8b\L	-rat	4G/	.	8g/L	.	8b\L	.	.	.	.	.	.	.	.
.	.	8dd\J	a-=	.	.	8b\J	.	8dd\J	.	.	.	.	.	.	.	.
=58	=58	=58	=58	=58	=58	=58	=58	=58	=58	=58	=58	=58	=58	=58	=58	=58
!	!	!LO:PB:g=original	!	!	!	!	!	!	!	!LO:PB:g=original	!	!	!LO:PB:g=original	!	!	!
2.D\	.	8dd\	-ni-	2.d\	.	8b\L	.	8dd\L	.	4r	.	4r	4r	.	4r	.
.	.	8cc\	-ma	.	.	8a/J	.	8cc\J	.	.	.	.	.	.	.	.
.	.	(>4b\	me-	.	.	4g/	.	4b\	.	4g/	.	4b\	4gg\	.	4bb\	.
.	.	4a\)	.	.	.	4d/	.	4a/	.	4d/	.	4a/	4ff#\	.	4aa\	.
=59	=59	=59	=59	=59	=59	=59	=59	=59	=59	=59	=59	=59	=59	=59	=59	=59
2G\	.	4a\	-a	2G/	.	4d/	.	(>4a\	.	4d/	.	4a/	4ff#\	.	4aa\	.
.	.	4b\	a	.	.	4g/	.	4b\)	.	4g/	.	4b\	4gg\	.	4bb\	.
4r	.	4r	.	4r	.	4r	.	4ee\	.	4r	.	4r	4r	.	4r	.
=60	=60	=60	=60	=60	=60	=60	=60	=60	=60	=60	=60	=60	=60	=60	=60	=60
!	!	!	!	!	!	!LO:PB:g=original	!	!	!LO:DY:a	!	!	!LO:PB:g=original	!	!	!	!
4d\	.	4r	.	4d\	.	2e/	.	(<4g#X/	f	2.r	.	2.r	2.r	.	2.r	.
!	!	!	!	!	!	!	!	!	!LO:DY:a	!	!	!	!	!	!	!
4c\	.	4r	.	4c\	.	.	.	4a/)	p	.	.	.	.	.	.	.
!	!	!	!	!	!	!	!LO:DY:a	!	!	!	!	!	!	!	!	!
4r	.	4dd\	de-	4r	.	4r	f	4dd\	.	.	.	.	.	.	.	.
=61	=61	=61	=61	=61	=61	=61	=61	=61	=61	=61	=61	=61	=61	=61	=61	=61
!	!	!	!	!	!	!	!	!	!LO:DY:a	!	!	!	!	!	!	!
4c\	.	8.f#X/	-ſi-	4c/	.	2d/	.	(<4f#X/	f	2.r	.	2.r	2.r	.	2.r	.
.	.	16f#/	-de-	.	.	.	.	.	.	.	.	.	.	.	.	.
!	!	!	!	!	!	!	!	!	!LO:DY:a	!	!	!	!	!	!	!
4B\	.	4g\	-rat	4B/	.	.	.	4gn/)	p	.	.	.	.	.	.	.
4G\	.	8b\L	a-	4G/	.	(<8g/L	.	8b\L	.	.	.	.	.	.	.	.
.	.	8dd\J	.	.	.	8b\J)	.	8dd\J	.	.	.	.	.	.	.	.
=62	=62	=62	=62	=62	=62	=62	=62	=62	=62	=62	=62	=62	=62	=62	=62	=62
!LO:PB:g=original	!	!	!	!	!	!	!	!LO:PB:g=original	!	!	!	!	!	!	!	!
2.D\	.	8.dd\	-ni-	2.d\	.	8b\L	.	8dd\L	.	4r	.	4r	4r	.	4r	.
.	.	.	.	.	.	8a/J	.	8cc\J	.	.	.	.	.	.	.	.
.	.	16cc\	-ma	.	.	.	.	.	.	.	.	.	.	.	.	.
.	.	(>4b\	.	.	.	4g/	.	4b\	.	4g/	.	4b\	4gg\	.	4bb\	.
.	.	4a\)	me-	.	.	4f#/	.	4a/	.	4d/	.	4a/	4ff#\	.	4aa\	.
=63	=63	=63	=63	=63	=63	=63	=63	=63	=63	=63	=63	=63	=63	=63	=63	=63
!	!	!	!	!	!	!LO:TX:t=P:mixed beam:problem	!LO:DY:a	!LO:SIC:v=dopisana repetycja	!	!	!	!	!	!	!	!
*	*	*	*	*	*	*	*	*	*	*	*	*	*tremolo	*	*	*
8GG/L	.	4g\	-a	8G/L	.	8B/'L	p	8g/'L	.	8B/L	.	8g/L	8b\L	.	8gg\L	.
!LO:TX:t=P:mixed beam:problem	!	!	!	!	!	!	!	!	!	!LO:TX:t=P:mixed beam:problem	!	!	!	!	!	!
8G\J	.	.	.	8B/J 8d/	.	(16bL\	.	(>16bb\L	.	8g/J	.	8b\J	8b\	.	8dd\J	.
.	.	.	.	.	.	16a/JJ)	.	16aa\JJ)	.	.	.	.	.	.	.	.
*tremolo	*	*	*	*	*	*	*	*	*	*tremolo	*	*tremolo	*	*	*tremolo	*
8G\L	.	4r	.	8BL/ 8d/	.	8b'L\	.	8bb\'L	.	8g/L	.	8b\L	8b\	.	8dd\L	.
8G\	.	.	.	8B/ 8d/	.	(>16b\L	.	(>16bb\L	.	8g/	.	8b\	8b\	.	8dd\	.
.	.	.	.	.	.	16a/JJ)	.	16aa\JJ)	.	.	.	.	.	.	.	.
8G\	.	4r	.	8B/ 8d/	.	8b'L\	.	8bb\'L	.	8g/	.	8b\	8b\	.	8dd\	.
8G\J	.	.	.	8B/J 8d/	.	(>16b\L	.	(>16bb\L	.	8g/J	.	8b\J	8b\J	.	8dd\J	.
.	.	.	.	.	.	16a/JJ)	.	16aa\JJ)	.	.	.	.	.	.	.	.
=64	=64	=64	=64	=64	=64	=64	=64	=64	=64	=64	=64	=64	=64	=64	=64	=64
8F#\L	.	2.r	.	8cL/ 8d/	.	8ddL\	.	8ddd\L	.	2.d/	.	2.a/	2.cc\	.	2.dd\	.
8F#\	.	.	.	8c\ 8d\	.	8cc\J	.	8ccc\J	.	.	.	.	.	.	.	.
8F#\	.	.	.	8c\ 8d\	.	4a/	.	4aa\	.	.	.	.	.	.	.	.
8F#\	.	.	.	8c\ 8d\	.	.	.	.	.	.	.	.	.	.	.	.
8F#\	.	.	.	8c\ 8d\	.	8r	.	8r	.	.	.	.	.	.	.	.
8F#\J	.	.	.	8c\J 8d\	.	8a/	.	8aa\	.	.	.	.	.	.	.	.
=65	=65	=65	=65	=65	=65	=65	=65	=65	=65	=65	=65	=65	=65	=65	=65	=65
!	!	!	!	!	!	!	!	!LO:SIC:o:v=dodany takt	!	!	!	!	!	!	!	!
8G\L	.	4r	.	8BL/ 8d/	.	8b'L\	.	8g/'L	.	8g/L	.	8b\L	8b\L	.	8dd\L	.
8G\	.	.	.	8B/ 8d/	.	(>16b\L	.	(>16bb\L	.	8g/	.	8b\	8b\	.	8dd\	.
.	.	.	.	.	.	16a/JJ)	.	16aa\JJ)	.	.	.	.	.	.	.	.
8G\	.	4r	.	8B/ 8d/	.	8b'L\	.	8bb\'L	.	8g/	.	8b\	8b\	.	8dd\	.
8G\	.	.	.	8B/ 8d/	.	(>16b\L	.	(>16bb\L	.	8g/	.	8b\	8b\	.	8dd\	.
.	.	.	.	.	.	16a/JJ)	.	16aa\JJ)	.	.	.	.	.	.	.	.
8G\	.	4dd\	O	8B/ 8d/	.	8b\'L	.	8bb\'L	.	8g/	.	8b\	8b\	.	8dd\	.
8G\J	.	.	.	8B/J 8d/	.	(>16b\L	.	(>16bb\L	.	8g/J	.	8b\J	8b\J	.	8dd\J	.
.	.	.	.	.	.	16a/JJ)	.	16aa\JJ)	.	.	.	.	.	.	.	.
=66	=66	=66	=66	=66	=66	=66	=66	=66	=66	=66	=66	=66	=66	=66	=66	=66
8F#\L	.	8dd\	Je-	8cL/ 8d/	.	8dd\L	.	8ddd\L	.	2.d/	.	2.a/	2.cc\	.	2.dd\	.
8F#\	.	8dd\	-su	8c\ 8d\	.	8cc\J	.	8ccc\J	.	.	.	.	.	.	.	.
8F#\	.	4dd\	a-	8c\ 8d\	.	4a/	.	4aa\	.	.	.	.	.	.	.	.
8F#\	.	.	.	8c\ 8d\	.	.	.	.	.	.	.	.	.	.	.	.
8F#\	.	4dd\	-mor-	8c\ 8d\	.	8r	.	8r	.	.	.	.	.	.	.	.
8F#\J	.	.	.	8c\J 8d\	.	8a/	.	8aa\	.	.	.	.	.	.	.	.
=67	=67	=67	=67	=67	=67	=67	=67	=67	=67	=67	=67	=67	=67	=67	=67	=67
8G\L	.	4gg\	-mi	8BL/ 8d/	.	8b\'L	.	8bb\'L	.	8g/L	.	2.b\	8b\L	.	8dd\L	.
8G\	.	.	.	8B/ 8d/	.	(>16b\L	.	(>16bb\L	.	8g/	.	.	8b\	.	8dd\	.
.	.	.	.	.	.	16a/JJ)	.	16aa\JJ)	.	.	.	.	.	.	.	.
8G\	.	4r	.	8B/ 8d/	.	8b\'L	.	8bb\'L	.	8g/	.	.	8b\	.	8dd\	.
8G\	.	.	.	8B/ 8d/	.	(>16b\L	.	(>16bb\L	.	8g/	.	.	8b\	.	8dd\	.
.	.	.	.	.	.	16a/JJ)	.	16aa\JJ)	.	.	.	.	.	.	.	.
8G\	.	4dd\	O	8B/ 8d/	.	8b\'L	.	8bb\'L	.	8g/	.	.	8b\	.	8dd\	.
8G\J	.	.	.	8B/J 8d/	.	(>16b\L	.	(>16bb\L	.	8g/J	.	.	8b\J	.	8dd\J	.
.	.	.	.	.	.	16a/JJ)	.	16aa\JJ)	.	.	.	.	.	.	.	.
=68	=68	=68	=68	=68	=68	=68	=68	=68	=68	=68	=68	=68	=68	=68	=68	=68
!	!	!LO:PB:g=original	!	!	!	!LO:PB:g=original	!	!	!	!	!	!	!	!	!	!
8F#\L	.	8dd\	Je-	8cL/ 8d/	.	8dd\L	.	8ddd\L	.	2.d/	.	8a/L	2.cc\	.	2.dd\	.
8F#\	.	8dd\	-su	8c\ 8d\	.	8cc\J	.	8ccc\J	.	.	.	8a/	.	.	.	.
8F#\	.	4dd\	a-	8c\ 8d\	.	4a/	.	4aa\	.	.	.	8a/	.	.	.	.
8F#\	.	.	.	8c\ 8d\	.	.	.	.	.	.	.	8a/	.	.	.	.
8F#\	.	4dd\	-mor-	8c\ 8d\	.	8r	.	8r	.	.	.	8a/	.	.	.	.
8F#\J	.	.	.	8c\J 8d\	.	8a/	.	8aa\	.	.	.	8a/J	.	.	.	.
=69	=69	=69	=69	=69	=69	=69	=69	=69	=69	=69	=69	=69	=69	=69	=69	=69
!	!	!	!	!LO:PB:g=original	!	!	!	!	!	!	!	!	!	!	!	!
8G\L	.	4gg\	-mi	8BL/ 8d/	.	8b'L\	.	8bb\'L	.	8g/L	.	2.b\	8b\L	.	8dd\L	.
8G\	.	.	.	8B/ 8d/	.	(>16b\L	.	(>16bb\L	.	8g/	.	.	8b\	.	8dd\	.
.	.	.	.	.	.	16a/JJ)	.	16aa\JJ)	.	.	.	.	.	.	.	.
8G\	.	4r	.	8B/ 8d/	.	8b'L\	.	8bb\'L	.	8g/	.	.	8b\	.	8dd\	.
8G\	.	.	.	8B/ 8d/	.	(>16b\L	.	(>16bb\L	.	8g/	.	.	8b\	.	8dd\	.
.	.	.	.	.	.	16a/JJ)	.	16aa\JJ)	.	.	.	.	.	.	.	.
8G\	.	4dd\	O	8B/ 8d/	.	8b'L\	.	8bb\'L	.	8g/	.	.	8b\	.	8dd\	.
8G\J	.	.	.	8B/J 8d/	.	(>16b\L	.	(>16bb\L	.	8g/J	.	.	8b\J	.	8dd\J	.
.	.	.	.	.	.	16a/JJ)	.	16aa\JJ)	.	.	.	.	.	.	.	.
=70	=70	=70	=70	=70	=70	=70	=70	=70	=70	=70	=70	=70	=70	=70	=70	=70
8F#\L	.	8dd\	Je-	8cL/ 8d/	.	8dd\L	.	8ddd\L	.	2.d/	.	2.a/	2.cc\	.	2.dd\	.
8F#\	.	8dd\	-su	8c\ 8d\	.	8cc\J	.	8ccc\J	.	.	.	.	.	.	.	.
8F#\	.	4dd\	a-	8c\ 8d\	.	4a/	.	4aa\	.	.	.	.	.	.	.	.
8F#\	.	.	.	8c\ 8d\	.	.	.	.	.	.	.	.	.	.	.	.
8F#\	.	4dd\	-mor-	8c\ 8d\	.	8r	.	8r	.	.	.	.	.	.	.	.
8F#\J	.	.	.	8c\J 8d\	.	8a/	.	8aa\	.	.	.	.	.	.	.	.
=71	=71	=71	=71	=71	=71	=71	=71	=71	=71	=71	=71	=71	=71	=71	=71	=71
4G\	.	4gg\	-mi	4B/ 4d/	.	4b/	.	4bb\	.	4g/	.	4b\	4b\	.	4dd\	.
4r	.	4r	.	4r	.	4r	.	4r	.	4r	.	4r	4r	.	4r	.
4r	.	4r	.	4r	.	4r	.	4r	.	4r	.	4r	4r	.	4r	.
=72	=72	=72	=72	=72	=72	=72	=72	=72	=72	=72	=72	=72	=72	=72	=72	=72
!	!	!	!	!	!	!	!	!	!	!	!	!	!	!	!LO:PB:g=original	!
2.r	.	4b\	te	2.r	.	4g/	.	4b\	.	2.r	.	2.r	2.r	.	2.r	.
!	!	!	!	!	!	!	!	!LO:PB:g=original	!	!	!	!	!	!	!	!
.	.	4b\	ſo-	.	.	(<4g/	.	4b\	.	.	.	.	.	.	.	.
.	.	4dd\	-lum	.	.	4b/)	.	4dd\	.	.	.	.	.	.	.	.
=73	=73	=73	=73	=73	=73	=73	=73	=73	=73	=73	=73	=73	=73	=73	=73	=73
2.r	.	4b\	de-	2.r	.	4g/	.	4b\	.	2.r	.	2.r	2.r	.	2.r	.
.	.	8.b\	-ſi-	.	.	(<4g/	.	4b\	.	.	.	.	.	.	.	.
.	.	16b\	-de-	.	.	.	.	.	.	.	.	.	.	.	.	.
.	.	4dd\	-rat	.	.	4b/)	.	4dd\	.	.	.	.	.	.	.	.
=74	=74	=74	=74	=74	=74	=74	=74	=74	=74	=74	=74	=74	=74	=74	=74	=74
.	.	.	.	.	.	.	.	8qqdd/	.	.	.	.	.	.	.	.
2.r	.	4cc\	a-	2.r	.	4a/	.	4cc\	.	2.r	.	2.r	2.r	.	2.r	.
.	.	8cc\	-ni-	.	.	8a/L	.	8cc\L	.	.	.	.	.	.	.	.
.	.	8b\	-ma	.	.	8g/	.	8b\	.	.	.	.	.	.	.	.
.	.	8cc\L	.	.	.	8a/	.	8cc\	.	.	.	.	.	.	.	.
.	.	8ee\J	.	.	.	8cc\J	.	8ee\J	.	.	.	.	.	.	.	.
=75	=75	=75	=75	=75	=75	=75	=75	=75	=75	=75	=75	=75	=75	=75	=75	=75
.	.	8qqb/	.	.	.	.	.	.	.	.	.	.	.	.	.	.
2.r	.	4a\	mea	2.r	.	4f#/	.	4a/	.	2.r	.	2.r	2.r	.	2.r	.
.	.	4r	.	.	.	4r	.	4r	.	.	.	.	.	.	.	.
.	.	4r	.	.	.	4r	.	4r	.	.	.	.	.	.	.	.
=76	=76	=76	=76	=76	=76	=76	=76	=76	=76	=76	=76	=76	=76	=76	=76	=76
4c\	.	4a\	O	4A/	.	8f#/L	.	4aa\	.	2.r	.	2.r	2.r	.	2.r	.
.	.	.	.	.	.	8d/	.	.	.	.	.	.	.	.	.	.
4B\	.	4b\	Je-	4G/	.	8g/	.	4bb\	.	.	.	.	.	.	.	.
.	.	.	.	.	.	8d/	.	.	.	.	.	.	.	.	.	.
4A\	.	4cc\	-su	4F#/	.	8a/	.	4ccc\	.	.	.	.	.	.	.	.
.	.	.	.	.	.	8d/J	.	.	.	.	.	.	.	.	.	.
=77	=77	=77	=77	=77	=77	=77	=77	=77	=77	=77	=77	=77	=77	=77	=77	=77
2.G\	.	2dd\	Je-	8G/L	.	8b\L	.	8ddd\L	.	2.r	.	2.r	2.r	.	2.r	.
.	.	.	.	8B/J	.	8g/	.	8bb\	.	.	.	.	.	.	.	.
.	.	.	.	8e\L	.	8d/	.	8gg\	.	.	.	.	.	.	.	.
.	.	.	.	8g\J	.	8g/J	.	8dd\J	.	.	.	.	.	.	.	.
.	.	4gg\	-su	4d\	.	4b\	.	4gg\	.	.	.	.	.	.	.	.
=78	=78	=78	=78	=78	=78	=78	=78	=78	=78	=78	=78	=78	=78	=78	=78	=78
!	!	!LO:PB:g=original	!	!	!	!	!	!	!	!LO:PB:g=original	!	!	!LO:PB:g=original	!	!	!
2.D\	.	4g\	a-	2.d\	.	4B/	.	4g/	.	4r	.	4r	4r	.	4r	.
.	.	4b\	-mor-	.	.	4g/	.	4b/	.	4g/	.	4b\	4gg\	.	4bb\	.
.	.	4a\	-mi	.	.	4d/	.	4a/	.	4d/	.	4a/	4dd\	.	4aa\	.
=79	=79	=79	=79	=79	=79	=79	=79	=79	=79	=79	=79	=79	=79	=79	=79	=79
!	!	!	!	!	!	!LO:PB:g=original	!	!	!	!	!	!	!	!	!	!
8GG/L	.	4g\	.	8G/L 8B/	.	8B'L/	.	8g/'L	.	8B/L	.	8g/L	8b\L	.	8gg\L	.
!LO:TX:t=P:mixed beam:problem	!	!	!	!	!	!LO:TX:t=P:mixed beam:problem	!	!LO:TX:t=P:mixed beam:problem	!	!LO:TX:t=P:mixed beam:problem	!	!	!	!	!	!
8G\J	.	.	.	8B/J 8d/	.	(>16bL\	.	(>16bb\L	.	8g/J	.	8b\J	8b\	.	8dd\J	.
.	.	.	.	.	.	16a/JJ)	.	16aa\JJ)	.	.	.	.	.	.	.	.
8G\L	.	4r	.	8BL/ 8d/	.	8b'L\	.	8bb\'L	.	8g/L	.	8b\L	8b\	.	8dd\L	.
8G\	.	.	.	8B/ 8d/	.	(>16b\L	.	(>16bb\L	.	8g/	.	8b\	8b\	.	8dd\	.
.	.	.	.	.	.	16a/JJ)	.	16aa\JJ)	.	.	.	.	.	.	.	.
8G\	.	4r	.	8B/ 8d/	.	8b'L\	.	8bb\'L	.	8g/	.	8b\	8b\	.	8dd\	.
8G\J	.	.	.	8B/J 8d/	.	(>16b\L	.	(>16bb\L	.	8g/J	.	8b\J	8b\J	.	8dd\J	.
.	.	.	.	.	.	16a/JJ)	.	16aa\JJ)	.	.	.	.	.	.	.	.
=80	=80	=80	=80	=80	=80	=80	=80	=80	=80	=80	=80	=80	=80	=80	=80	=80
8D\L 8F#\	.	2.r	.	8cL/ 8d/	.	8dd\L	.	8ddd\L	.	2.d/	.	2.a/	8cc\L	.	2.dd\	.
8D\ 8F#\	.	.	.	8c\ 8d\	.	8cc\J	.	8ccc\J	.	.	.	.	8cc\	.	.	.
8D\ 8F#\	.	.	.	8c\ 8d\	.	4a/	.	4aa\	.	.	.	.	8cc\	.	.	.
8D\ 8F#\	.	.	.	8c\ 8d\	.	.	.	.	.	.	.	.	8cc\	.	.	.
8D\ 8F#\	.	.	.	8c\ 8d\	.	8r	.	8r	.	.	.	.	8cc\	.	.	.
8D\J 8F#\	.	.	.	8c\J 8d\	.	8a/	.	8aa\	.	.	.	.	8cc\J	.	.	.
=81	=81	=81	=81	=81	=81	=81	=81	=81	=81	=81	=81	=81	=81	=81	=81	=81
8G\L	.	4r	.	8BL/ 8d/	.	8b'L\	.	8bb\'L	.	8g/L	.	8b\L	8b\L	.	8dd\L	.
8G\	.	.	.	8B/ 8d/	.	(>16b\L	.	(>16bb\L	.	8g/	.	8b\	8b\	.	8dd\	.
.	.	.	.	.	.	16a/JJ)	.	16aa\JJ)	.	.	.	.	.	.	.	.
8G\	.	4r	.	8B/ 8d/	.	8b'L\	.	8bb\'L	.	8g/	.	8b\	8b\	.	8dd\	.
8G\	.	.	.	8B/ 8d/	.	(>16b\L	.	(>16bb\L	.	8g/	.	8b\	8b\	.	8dd\	.
.	.	.	.	.	.	16a/JJ)	.	16aa\JJ)	.	.	.	.	.	.	.	.
8G\	.	4dd\	O	8B/ 8d/	.	8b'L\	.	8bb\'L	.	8g/	.	8b\	8b\	.	8dd\	.
8G\J	.	.	.	8B/J 8d/	.	(>16b\L	.	(>16bb\L	.	8g/J	.	8b\J	8b\J	.	8dd\J	.
.	.	.	.	.	.	16a/JJ)	.	16aa\JJ)	.	.	.	.	.	.	.	.
=82	=82	=82	=82	=82	=82	=82	=82	=82	=82	=82	=82	=82	=82	=82	=82	=82
!LO:PB:g=original	!	!	!	!	!	!	!	!LO:PB:g=original	!	!	!	!LO:PB:g=original	!	!	!	!
8F#\L	.	8dd\	Je-	8cL/ 8d/	.	8dd\L	.	8ddd\L	.	2.d/	.	2.a/	2.cc\	.	2.dd\	.
8F#\	.	8dd\	-su	8c\ 8d\	.	8cc\J	.	8ccc\J	.	.	.	.	.	.	.	.
8F#\	.	4cc\	a-	8c\ 8d\	.	4a/	.	4aa\	.	.	.	.	.	.	.	.
8F#\	.	.	.	8c\ 8d\	.	.	.	.	.	.	.	.	.	.	.	.
8F#\	.	4cc\	-mor-	8c\ 8d\	.	8r	.	8r	.	.	.	.	.	.	.	.
8F#\J	.	.	.	8c\J 8d\	.	8a/	.	8aa\	.	.	.	.	.	.	.	.
=83	=83	=83	=83	=83	=83	=83	=83	=83	=83	=83	=83	=83	=83	=83	=83	=83
!	!	!	!	!	!	!	!	!	!	!	!	!LO:SIC:v=d zamiast e	!	!	!	!
8G\L	.	4gg\	-mi	8BL/ 8d/	.	8b\'L	.	8bb\'L	.	8g/L	.	8a/L	8b\L	.	8dd\L	.
8G\	.	.	.	8B/ 8d/	.	(>16bL\	.	(>16bb\L	.	8g/	.	8a/	8b\	.	8dd\	.
.	.	.	.	.	.	16a/JJ)	.	16aa\JJ)	.	.	.	.	.	.	.	.
8G\	.	4r	.	8B/ 8d/	.	8b'L\	.	8bb\'L	.	8g/	.	8a/	8b\	.	8dd\	.
8G\	.	.	.	8B/ 8d/	.	(>16b\L	.	(>16bb\L	.	8g/	.	8a/	8b\	.	8dd\	.
.	.	.	.	.	.	16a/JJ)	.	16aa\JJ)	.	.	.	.	.	.	.	.
8G\	.	4dd\	O	8B/ 8d/	.	8b'L\	.	8bb\'L	.	8g/	.	8a/	8b\	.	8dd\	.
8G\J	.	.	.	8B/J 8d/	.	(>16b\L	.	(>16bb\L	.	8g/J	.	8a/J	8b\J	.	8dd\J	.
.	.	.	.	.	.	16a/JJ)	.	16aa\JJ)	.	.	.	.	.	.	.	.
=84	=84	=84	=84	=84	=84	=84	=84	=84	=84	=84	=84	=84	=84	=84	=84	=84
!	!	!	!	!LO:PB:g=original	!	!	!	!	!	!	!	!LO:SIC:v=e zamiast d	!	!	!	!
8F#\L	.	8dd\	Je-	8cL/ 8d/	.	8dd\L	.	8ddd\L	.	2.d/	.	2.b\	2.cc\	.	2.dd\	.
8F#\	.	8dd\	-su	8c\ 8d\	.	8cc\J	.	8ccc\J	.	.	.	.	.	.	.	.
8F#\	.	4dd\	a-	8c\ 8d\	.	4a/	.	4aa\	.	.	.	.	.	.	.	.
8F#\	.	.	.	8c\ 8d\	.	.	.	.	.	.	.	.	.	.	.	.
8F#\	.	4dd\	-mor-	8c\ 8d\	.	8r	.	8r	.	.	.	.	.	.	.	.
8F#\J	.	.	.	8c\J 8d\	.	8a/	.	8aa\	.	.	.	.	.	.	.	.
=85	=85	=85	=85	=85	=85	=85	=85	=85	=85	=85	=85	=85	=85	=85	=85	=85
!	!	!	!	!	!	!	!	!	!	!	!	!LO:SIC:v=d zamiast e	!	!	!	!
8G\L	.	4gg\	-mi	8BL/ 8d/	.	8b\'L	.	8bb\'L	.	8g/L	.	8a/L	8b\L	.	8dd\L	.
8G\	.	.	.	8B/ 8d/	.	(>16bL\	.	(>16bb\L	.	8g/	.	8a/	8b\	.	8dd\	.
.	.	.	.	.	.	16a/JJ)	.	16aa\JJ)	.	.	.	.	.	.	.	.
8G\	.	4r	.	8B/ 8d/	.	8b'L\	.	8bb\'L	.	8g/	.	8a/	8b\	.	8dd\	.
8G\	.	.	.	8B/ 8d/	.	(>16b\L	.	(>16bb\L	.	8g/	.	8a/	8b\	.	8dd\	.
.	.	.	.	.	.	16a/JJ)	.	16aa\JJ)	.	.	.	.	.	.	.	.
8G\	.	4dd\	O	8B/ 8d/	.	8b'L\	.	8bb\'L	.	8g/	.	8a/	8b\	.	8dd\	.
8G\J	.	.	.	8B/J 8d/	.	(>16b\L	.	(>16bb\L	.	8g/J	.	8a/J	8b\J	.	8dd\J	.
.	.	.	.	.	.	16a/JJ)	.	16aa\JJ)	.	.	.	.	.	.	.	.
=86	=86	=86	=86	=86	=86	=86	=86	=86	=86	=86	=86	=86	=86	=86	=86	=86
!	!	!	!	!	!	!LO:PB:g=original	!	!	!	!	!	!LOSIC:v=e zamiast d	!	!	!	!
8F#\L	.	8dd\	Je-	8cL/ 8d/	.	8dd\L	.	8ddd\L	.	2.d/	.	2.b\	2.cc\	.	2.dd\	.
8F#\	.	8dd\	-su	8c\ 8d\	.	8cc\J	.	8ccc\J	.	.	.	.	.	.	.	.
8F#\	.	4dd\	a-	8c\ 8d\	.	4a/	.	4aa\	.	.	.	.	.	.	.	.
8F#\	.	.	.	8c\ 8d\	.	.	.	.	.	.	.	.	.	.	.	.
8F#\	.	4dd\	-mor-	8c\ 8d\	.	8r	.	8r	.	.	.	.	.	.	.	.
8F#\J	.	.	.	8c\J 8d\	.	8a/	.	8aa\	.	.	.	.	.	.	.	.
=87	=87	=87	=87	=87	=87	=87	=87	=87	=87	=87	=87	=87	=87	=87	=87	=87
4G\	.	4gg\	-mi	4B/ 4d/	.	4b\	.	4ddd\	.	4g/	.	4b\	4b\	.	4dd\	.
4r	.	4r	.	4r	.	4r	.	4r	.	4r	.	4r	4r	.	4r	.
4r	.	4r	.	4r	.	4r	.	4r	.	4r	.	4r	4r	.	4r	.
=88	=88	=88	=88	=88	=88	=88	=88	=88	=88	=88	=88	=88	=88	=88	=88	=88
2.r	.	4b\	te	2.r	.	4g/	.	(>4b\	.	2.r	.	2.r	2.r	.	2.r	.
.	.	4b\	ſo-	.	.	4g/	.	4b\)	.	.	.	.	.	.	.	.
.	.	4dd\	-lum	.	.	4b/	.	4dd\'	.	.	.	.	.	.	.	.
=89	=89	=89	=89	=89	=89	=89	=89	=89	=89	=89	=89	=89	=89	=89	=89	=89
!	!	!LO:PB:g=original	!	!	!	!	!	!	!	!	!	!	!	!	!	!
2.r	.	4b\	de-	2.r	.	4g/	.	(>4b\	.	2.r	.	2.r	2.r	.	2.r	.
.	.	8.b\	-ſi-	.	.	4g/	.	4b\)	.	.	.	.	.	.	.	.
.	.	16b\	-de-	.	.	.	.	.	.	.	.	.	.	.	.	.
.	.	4dd\	-rat	.	.	4b/	.	4dd\'	.	.	.	.	.	.	.	.
=90	=90	=90	=90	=90	=90	=90	=90	=90	=90	=90	=90	=90	=90	=90	=90	=90
.	.	8qqdd/	.	.	.	.	.	8qqdd/	.	.	.	.	.	.	.	.
2.r	.	4cc\	a-	2.r	.	4a/	.	4cc\	.	2.r	.	2.r	2.r	.	2.r	.
.	.	8cc\	-ni-	.	.	8a/L	.	(>8cc\L	.	.	.	.	.	.	.	.
.	.	8b\	-ma	.	.	8g/	.	8b\	.	.	.	.	.	.	.	.
.	.	8cc\L	mea	.	.	8a/	.	8cc\	.	.	.	.	.	.	.	.
.	.	8ee\J	.	.	.	8cc\J	.	8ee\J)	.	.	.	.	.	.	.	.
=91	=91	=91	=91	=91	=91	=91	=91	=91	=91	=91	=91	=91	=91	=91	=91	=91
!	!	!	!	!	!	!	!	!LO:PB:g=original	!	!	!	!	!	!	!	!
2.r	.	4a\	.	2.r	.	4f#/	.	4a/	.	2.r	.	2.r	2.r	.	2.r	.
.	.	4r	.	.	.	4r	.	4r	.	.	.	.	.	.	.	.
.	.	4r	.	.	.	4r	.	4r	.	.	.	.	.	.	.	.
=92	=92	=92	=92	=92	=92	=92	=92	=92	=92	=92	=92	=92	=92	=92	=92	=92
4c\	.	4a\	O	4A/ 4c/	.	8f#/L	.	4aa\	.	2.r	.	2.r	2.r	.	2.r	.
.	.	.	.	.	.	8d/	.	.	.	.	.	.	.	.	.	.
4B\	.	4b\	Je-	4G/	.	8g/	.	4bb\	.	.	.	.	.	.	.	.
.	.	.	.	.	.	8d/	.	.	.	.	.	.	.	.	.	.
4A\	.	4cc\	-su	4F#/	.	8a/	.	4ccc\	.	.	.	.	.	.	.	.
.	.	.	.	.	.	8d/J	.	.	.	.	.	.	.	.	.	.
=93	=93	=93	=93	=93	=93	=93	=93	=93	=93	=93	=93	=93	=93	=93	=93	=93
2.G\	.	2dd\	Je-	8G/L	.	8b\L	.	8ddd\L	.	2.r	.	2.r	2.r	.	2.r	.
.	.	.	.	8B/J	.	8g/	.	8bb\	.	.	.	.	.	.	.	.
.	.	.	.	8d\L	.	8d/	.	8gg\	.	.	.	.	.	.	.	.
.	.	.	.	8g\J	.	8g/J	.	8dd\J	.	.	.	.	.	.	.	.
.	.	4gg\	-su	4d\	.	4b\	.	4gg\	.	.	.	.	.	.	.	.
=94	=94	=94	=94	=94	=94	=94	=94	=94	=94	=94	=94	=94	=94	=94	=94	=94
2.D\	.	4g\	a-	2.d\	.	4B/	.	4g/	.	4r	.	4r	4r	.	4r	.
.	.	4b\	-mor-	.	.	4b\	.	4b/	.	4g/	.	4b\	4gg\	.	4bb\	.
!	!	!	!	!	!	!	!	!LO:TX:a:t=problem:niejednoznaczny zapis nad linijką	!	!	!	!	!	!	!	!
.	.	4a\	.	.	.	4d/	.	4a/	.	4d/	.	4a/	4dd\	.	4aa\	.
=95	=95	=95	=95	=95	=95	=95	=95	=95	=95	=95	=95	=95	=95	=95	=95	=95
2GG/	.	4g\	-mi	2G/	.	8B/L	.	8g/L	.	4B/	.	4g/	4b\	.	4gg\	.
.	.	.	.	.	.	8g/J	.	8b\J	.	.	.	.	.	.	.	.
.	.	4r;	.	.	.	4b\	.	4dd\	.	4r	.	4r	4r	.	4r	.
4r;	.	4r	.	4r;	.	4r;	.	4r;	.	4r	.	4r;	4r;	.	4r;	.
=96	=96	=96	=96	=96	=96	=96	=96	=96	=96	=96	=96	=96	=96	=96	=96	=96
!	!	!	!	!LO:SIC:v=h zamiast a	!LO:PB:g=original	!	!	!	!	!	!	!	!	!	!LO:PB:g=original	!
4c\	.	4a\	O	4B/	.	8f#/L	.	(>4aa\	.	2.r	.	2.r	2.r	.	2.r	.
.	.	.	.	.	.	8d/	.	.	.	.	.	.	.	.	.	.
4B\	.	4b\	Je-	4G/	.	8g/	.	4bb\)	.	.	.	.	.	.	.	.
.	.	.	.	.	.	8d/	.	.	.	.	.	.	.	.	.	.
4A\	.	4cc\	-su	4F#/	.	8a/	.	4ccc\'	.	.	.	.	.	.	.	.
.	.	.	.	.	.	8d/J	.	.	.	.	.	.	.	.	.	.
=97	=97	=97	=97	=97	=97	=97	=97	=97	=97	=97	=97	=97	=97	=97	=97	=97
4G\	.	2dd\	Je-	8G/L	.	8b\L	.	8ddd\L	.	2.r	.	2.r	2.r	.	2.r	.
.	.	.	.	8B/J	.	8g/	.	8bb\	.	.	.	.	.	.	.	.
4D\	.	.	.	8d\L	.	8d/	.	8gg\	.	.	.	.	.	.	.	.
.	.	.	.	8g\J	.	8g/J	.	8dd\J	.	.	.	.	.	.	.	.
4BB/	.	4gg\	-su	4d\	.	4b\	.	4gg\	.	.	.	.	.	.	.	.
=98	=98	=98	=98	=98	=98	=98	=98	=98	=98	=98	=98	=98	=98	=98	=98	=98
!	!	!	!	!	!LO:DY:a	!	!	!	!	!	!	!	!LO:PB:g=original	!	!	!
2.D\	.	4g\	a-	2.D/	p	4B/	.	4g/	.	4r	.	4r	4r	.	4r	.
!	!	!	!	!	!	!	!	!	!	!LO:TX:a:i:t=adagio	!	!	!	!	!	!
.	.	4b\	-mormi	.	.	4d/	.	4b/	.	4g/	.	4b\	4gg\	.	4bb\	.
.	.	4a\	.	.	.	4c/	.	4a/	.	4d/	.	4a/	4dd\	.	4aa\	.
=99	=99	=99	=99	=99	=99	=99	=99	=99	=99	=99	=99	=99	=99	=99	=99	=99
!	!	!	!	!LO:PB:g=original	!	!	!	!	!	!	!	!	!	!	!	!
4G\	.	4g\	.	4G/	.	4B/	.	4g/	.	4B/	.	4g/	4b\	.	4gg\	.
4r	.	4r	.	4r	.	4r	.	4r	.	4r	.	4r	4r	.	4r	.
4r	.	4gg\	te	4r	.	4r	.	4r	.	4r	.	4r	4r	.	4r	.
=100	=100	=100	=100	=100	=100	=100	=100	=100	=100	=100	=100	=100	=100	=100	=100	=100
!LO:PB:g=original	!	!LO:PB:g=original	!	!	!	!	!	!	!	!	!	!	!	!	!	!
2.D\	.	4g\	ſo-	2.D/	.	4B/	.	4g/	.	4r	.	4r	2.r	.	2.r	.
!	!	!	!	!	!	!LO:TX:a:i:t=Adagio	!	!	!	!	!	!LO:TX:a:i:t=Adagio	!	!	!	!
.	.	8.b\	-lum	.	.	4g/	.	4b/	.	4g/	.	4b\	.	.	.	.
.	.	16b\	de-	.	.	.	.	.	.	.	.	.	.	.	.	.
!	!	!	!	!	!	!	!	!LO:TX:a:i:t=Adagio	!	!	!	!	!	!	!	!
.	.	8.a\	-ſi-	.	.	4d/	.	4a/	.	4d/	.	4a/	.	.	.	.
.	.	16a\	-de-	.	.	.	.	.	.	.	.	.	.	.	.	.
=101	=101	=101	=101	=101	=101	=101	=101	=101	=101	=101	=101	=101	=101	=101	=101	=101
!LO:TX:a:i:t=Adagio	!	!	!	!	!	!	!	!	!	!	!	!	!LO:TX:a:i:t=adagio	!	!	!
4G\	.	4g\	-rat	2.D/	.	4B/	.	4g/	.	4B/	.	4g/	2.r	.	2.r	.
4r	.	32gLLL/	.	.	.	4r	.	4r	.	4r	.	4r	.	.	.	.
.	.	32a\	.	.	.	.	.	.	.	.	.	.	.	.	.	.
.	.	32b\	.	.	.	.	.	.	.	.	.	.	.	.	.	.
.	.	32cc\JJJ	.	.	.	.	.	.	.	.	.	.	.	.	.	.
.	.	32ddLLL/	.	.	.	.	.	.	.	.	.	.	.	.	.	.
.	.	32ee\	.	.	.	.	.	.	.	.	.	.	.	.	.	.
.	.	32ff#\	.	.	.	.	.	.	.	.	.	.	.	.	.	.
.	.	32gg\JJJ	.	.	.	.	.	.	.	.	.	.	.	.	.	.
4r	.	4gg\	a-	.	.	4r	.	4r	.	4r	.	4r	.	.	.	.
=102	=102	=102	=102	=102	=102	=102	=102	=102	=102	=102	=102	=102	=102	=102	=102	=102
!	!	!	!	!LO:SIC:v=brak taktu	!	!	!	!	!LO:DY:a	!	!	!LO:PB:g=original	!	!	!	!
2.D\	.	4g\	=	2.ryy	.	4B/	.	4g/	f	4r	.	4r	2.r	.	2.r	.
.	.	8b\	-ni-	.	.	4g/	.	4b/	.	4g/	.	4b\	.	.	.	.
.	.	8a\	-ma	.	.	.	.	.	.	.	.	.	.	.	.	.
.	.	4a\	me-	.	.	4d/	.	4a/	.	4d/	.	4a/	.	.	.	.
=103	=103	=103	=103	=103	=103	=103	=103	=103	=103	=103	=103	=103	=103	=103	=103	=103
!	!	!	!	!	!	!	!LO:DY:a	!	!	!	!	!	!	!	!LO:TX:a:i:t=aTempo	!
!LO:TX:a:i:t=Tempo primo	!	!	!	!LO:TX:a:i:t=Tempo primo	!	!	!	!LO:TX:t=P:mixed beam:original:problem	!	!LO:TX:t=P:mixed beam:problem	!	!LO:TX:a:i:t=Tempo primo	!	!	!	!
8G\L	.	4g\	-a	8G/L	.	8B'L/	f	8g/'L	.	8B/L	.	8g/L	8r	.	8r	.
!	!	!	!	!	!	!LO:TX:t=P:mixed beam:problem	!	!LO:TX:i:t=Tempo primo	!	!LO:TX:a:i:t=Tempo primo	!	!	!LO:TX:a:i:t=Tempo primo	!	!	!
!	!	!	!	!	!	!LO:TX:a:i:t=Tempo primo	!	!	!	!	!	!	!	!	!	!
8G\	.	.	.	8B/J 8d/	.	(>16bL\	.	(>16bb\L	.	8g/J	.	8b\J	8b\	.	8dd\	.
.	.	.	.	.	.	16a/JJ)	.	16aa\JJ)	.	.	.	.	.	.	.	.
8G\	.	4r	.	8BL/ 8d/	.	8b'L\	.	8bb\'L	.	8g/L	.	8b\L	8b\L	.	8dd\L	.
8G\	.	.	.	8B/ 8d/	.	(>16b\L	.	(>16bb\L	.	8g/	.	8b\	8b\	.	8dd\	.
.	.	.	.	.	.	16a/JJ)	.	16aa\JJ)	.	.	.	.	.	.	.	.
8G\	.	4r	.	8B/ 8d/	.	8b'L\	.	8bb\'L	.	8g/	.	8b\	8b\	.	8dd\	.
8G\J	.	.	.	8B/J 8d/	.	(>16b\L	.	(>16bb\L	.	8g/J	.	8b\J	8b\J	.	8dd\J	.
.	.	.	.	.	.	16a/JJ)	.	16aa\JJ)	.	.	.	.	.	.	.	.
=104	=104	=104	=104	=104	=104	=104	=104	=104	=104	=104	=104	=104	=104	=104	=104	=104
8F#\L	.	2.r	.	8cL/ 8d/	.	8dd\L	.	8ddd\L	.	2.d/	.	2.a/	2.cc\	.	2.dd\	.
8F#\	.	.	.	8c\ 8d\	.	8cc\J	.	8ccc\J	.	.	.	.	.	.	.	.
8F#\	.	.	.	8c\ 8d\	.	4a/	.	4aa\	.	.	.	.	.	.	.	.
8F#\	.	.	.	8c\ 8d\	.	.	.	.	.	.	.	.	.	.	.	.
8F#\	.	.	.	8c\ 8d\	.	8r	.	8r	.	.	.	.	.	.	.	.
8F#\J	.	.	.	8c\J 8d\	.	8a/	.	8aa\	.	.	.	.	.	.	.	.
=105	=105	=105	=105	=105	=105	=105	=105	=105	=105	=105	=105	=105	=105	=105	=105	=105
8G\L	.	2.r	.	8BL/ 8d/	.	8b'L\	.	8bb\'L	.	8g/L	.	8b\L	8b\L	.	8dd\L	.
8G\	.	.	.	8B/ 8d/	.	(>16b\L	.	(>16bb\L	.	8g/	.	8b\	8b\	.	8dd\	.
.	.	.	.	.	.	16a/JJ)	.	16aa\JJ)	.	.	.	.	.	.	.	.
8G\	.	.	.	8B/ 8d/	.	8b'L\	.	8bb\'L	.	8g/	.	8b\	8b\	.	8dd\	.
8G\	.	.	.	8B/ 8d/	.	(>16b\L	.	(>16bb\L	.	8g/	.	8b\	8b\	.	8dd\	.
.	.	.	.	.	.	16a/JJ)	.	16aa\JJ)	.	.	.	.	.	.	.	.
8G\	.	.	.	8B/ 8d/	.	8b'L\	.	8bb\'L	.	8g/	.	8b\	8b\	.	8dd\	.
8G\J	.	.	.	8B/J 8d/	.	(>16b\L	.	(>16bb\L	.	8g/J	.	8b\J	8b\J	.	8dd\J	.
.	.	.	.	.	.	16a/JJ)	.	16aa\JJ)	.	.	.	.	.	.	.	.
=106	=106	=106	=106	=106	=106	=106	=106	=106	=106	=106	=106	=106	=106	=106	=106	=106
!	!	!	!	!	!	!LO:PB:g=original	!	!	!	!	!	!	!	!	!	!
8F#\L	.	2.r	.	8cL/ 8d/	.	8dd\L	.	8ddd\L	.	2.d/	.	2.a/	2.cc\	.	2.dd\	.
8F#\	.	.	.	8c\ 8d\	.	8cc\J	.	8ccc\J	.	.	.	.	.	.	.	.
8F#\	.	.	.	8c\ 8d\	.	4a/	.	4aa\	.	.	.	.	.	.	.	.
8F#\	.	.	.	8c\ 8d\	.	.	.	.	.	.	.	.	.	.	.	.
8F#\	.	.	.	8c\ 8d\	.	8r	.	8r	.	.	.	.	.	.	.	.
8F#\J	.	.	.	8c\J 8d\	.	8a/	.	8aa\	.	.	.	.	.	.	.	.
=107	=107	=107	=107	=107	=107	=107	=107	=107	=107	=107	=107	=107	=107	=107	=107	=107
4G\	.	2.r	.	4B/ 4d/	.	4g/	.	4gg\	.	2B/	.	2g/	8bb\L	.	8ddd\L	.
.	.	.	.	.	.	.	.	.	.	.	.	.	16gg\L	.	16bb\L	.
.	.	.	.	.	.	.	.	.	.	.	.	.	16aa\JJ	.	16ccc\JJ	.
4r	.	.	.	4r	.	4r	.	4r	.	.	.	.	8bb\L	.	8ddd\L	.
.	.	.	.	.	.	.	.	.	.	.	.	.	8aa\J	.	8ccc\J	.
4r	.	.	.	4r	.	4r	.	4r	.	4r	.	4r	4gg\	.	4bb\	.
=108	=108	=108	=108	=108	=108	=108	=108	=108	=108	=108	=108	=108	=108	=108	=108	=108
!	!	!	!	!	!	!LO:TX:a:i:t=piano	!LO:DY:a	!	!	!	!	!	!	!	!	!
4D\	.	2.r	.	4d\	.	4B/	py	4d/	.	2.r	.	2.r	2.r	.	2.r	.
4D\	.	.	.	4d\	.	4B/	.	4d/	.	.	.	.	.	.	.	.
!	!	!	!	!	!	!	!	!LO:TX:a:i:t=piano	!	!	!	!	!	!	!	!
4D\	.	.	.	4d\	.	4B/	.	4d/	py	.	.	.	.	.	.	.
=109	=109	=109	=109	=109	=109	=109	=109	=109	=109	=109	=109	=109	=109	=109	=109	=109
4GG/	.	2.r	.	4B/	.	4G/	.	4B/	.	2.r	.	2.r	2.r	.	2.r	.
4r	.	.	.	4r	.	4r	.	4r	.	.	.	.	.	.	.	.
!	!	!	!	!	!LO:DY:a	!	!	!	!	!	!	!	!	!	!	!
4r	.	.	.	4r	p	4r	.	4r	.	.	.	.	.	.	.	.
=110	=110	=110	=110	=110	=110	=110	=110	=110	=110	=110	=110	=110	=110	=110	=110	=110
4D\	.	2.r	.	4d\	.	4B/	.	4d/	.	2.r	.	2.r	2.r	.	2.r	.
4D\	.	.	.	4d\	.	4B/	.	4d/	.	.	.	.	.	.	.	.
4D\	.	.	.	4d\	.	4B/	.	4d/	.	.	.	.	.	.	.	.
=111	=111	=111	=111	=111	=111	=111	=111	=111	=111	=111	=111	=111	=111	=111	=111	=111
4G\	.	2.r	.	4G/	.	4B/	.	4g/	.	2.r	.	2.r	2.r	.	2.r	.
4r	.	.	.	4r	.	4r	.	4r	.	.	.	.	.	.	.	.
4r	.	.	.	4r	.	4r	.	4r	.	.	.	.	.	.	.	.
=112	=112	=112	=112	=112	=112	=112	=112	=112	=112	=112	=112	=112	=112	=112	=112	=112
!	!	!	!	!	!	!	!	!	!	!LO:TX:a:i:t=Solo	!	!LO:TX:a:i:t=Solo	!	!	!	!
2.r	.	2.r	.	2.r	.	2.r	.	2.r	.	4d/	.	4a/	2.r	.	2.r	.
.	.	.	.	.	.	.	.	.	.	4d/	.	4a/	.	.	.	.
.	.	.	.	.	.	.	.	.	.	4d/	.	4a/	.	.	.	.
=113	=113	=113	=113	=113	=113	=113	=113	=113	=113	=113	=113	=113	=113	=113	=113	=113
2.r	.	2.r	.	2.r	.	2.r	.	2.r	.	4B/	.	4g/	2.r	.	2.r	.
.	.	.	.	.	.	.	.	.	.	4r	.	4r	.	.	.	.
.	.	.	.	.	.	.	.	.	.	4r	.	4r	.	.	.	.
==	==	==	==	==	==	==	==	==	==	==	==	==	==	==	==	==
*-	*-	*-	*-	*-	*-	*-	*-	*-	*-	*-	*-	*-	*-	*-	*-	*-
!!!system-decoration: [(s1,s2)][(s3,s4)][(s5,s6,s7)][(s8)][(s9)]
!!!RDF**kern: > = above
!!!RDF**kern: < = below
!!!ENC: Andrzej Kubiczek
!!!END: 2020-02-03
!!!ENC: Leszek Kubiak
!!!END: data 2020-03-04
